storage/app/icons/phosphoricons/light/compass-rose-light.svg

<svg xmlns="http://www.w3.org/2000/svg" fill="currentColor" viewBox="0 0 256 256"><path d="m249.46 122.18-28.34-7.09a93.87 93.87 0 0 0-80.22-80.21l-7.08-28.34a6 6 0 0 0-11.64 0l-7.08 28.34a93.87 93.87 0 0 0-80.22 80.21l-28.34 7.09a6 6 0 0 0 0 11.64l28.34 7.09a93.87 93.87 0 0 0 80.22 80.21l7.08 28.34a6 6 0 0 0 11.64 0l7.08-28.34a93.87 93.87 0 0 0 80.22-80.21l28.34-7.09a6 6 0 0 0 0-11.64m-41.05-10.26L157 99.05l-12.92-51.46a81.87 81.87 0 0 1 64.33 64.33m-63-9.76L128 119.51l-17.36-17.35L128 32.74Zm-33.49-54.57L99.05 99.05l-51.46 12.87a81.87 81.87 0 0 1 64.33-64.33m-9.76 63.06L119.52 128l-17.36 17.35L32.74 128Zm-54.57 33.43L99.05 157l12.87 51.46a81.87 81.87 0 0 1-64.33-64.38m63.05 9.76L128 136.49l17.36 17.35L128 223.26Zm33.44 54.57L157 157l51.46-12.87a81.87 81.87 0 0 1-64.38 64.28m9.76-63.06L136.48 128l17.36-17.35L223.26 128Z"/></svg>

<svg xmlns="http://www.w3.org/2000/svg" viewBox="0 0 256 256" fill="currentColor"><path d="M249.46,122.18l-28.34-7.09A93.87,93.87,0,0,0,140.9,34.88L133.82,6.54a6,6,0,0,0-11.64,0L115.1,34.88a93.87,93.87,0,0,0-80.22,80.21L6.54,122.18a6,6,0,0,0,0,11.64l28.34,7.09a93.87,93.87,0,0,0,80.22,80.21l7.08,28.34a6,6,0,0,0,11.64,0l7.08-28.34a93.87,93.87,0,0,0,80.22-80.21l28.34-7.09a6,6,0,0,0,0-11.64Zm-41.05-10.26L157,99.05,144.08,47.59A81.87,81.87,0,0,1,208.41,111.92Zm-63-9.76L128,119.51l-17.36-17.35L128,32.74ZM111.92,47.59,99.05,99.05,47.59,111.92A81.87,81.87,0,0,1,111.92,47.59Zm-9.76,63.06L119.52,128l-17.36,17.35L32.74,128ZM47.59,144.08,99.05,157l12.87,51.46A81.87,81.87,0,0,1,47.59,144.08Zm63.05,9.76L128,136.49l17.36,17.35L128,223.26Zm33.44,54.57L157,157l51.46-12.87A81.87,81.87,0,0,1,144.08,208.41Zm9.76-63.06L136.48,128l17.36-17.35L223.26,128Z"/></svg>
